icons/thumb-down.svg

<svg width="24" height="24" viewBox="0 0 24 24" fill="none" xmlns="http://www.w3.org/2000/svg">
<path fill-rule="evenodd" clip-rule="evenodd" d="M17.7845 2.00532C18.5933 1.94971 19.3142 2.31604 19.8462 2.88109C20.3809 3.44901 20.7368 4.21956 20.9177 5.03912C20.9199 5.04925 20.922 5.05941 20.9239 5.0696L21.9827 10.6929C21.9942 10.7539 22 10.8159 22 10.8779C22 11.7209 21.6853 12.5406 21.1079 13.1539C20.5285 13.7693 19.7293 14.1273 18.8824 14.1273H16.7059V18.7506C16.7059 19.5935 16.3912 20.4132 15.8137 21.0266C15.2344 21.642 14.4352 21.9999 13.5882 21.9999C12.7413 21.9999 11.9421 21.642 11.3627 21.0266C10.7853 20.4132 10.4706 19.5935 10.4706 18.7506V17.6259C10.4706 16.6792 10.116 15.7825 9.502 15.1304C9.03041 14.6295 8.43725 14.3053 7.80861 14.1827C7.70912 14.1633 7.41906 14.1158 7.11233 14.0723C6.96191 14.0509 6.81612 14.0318 6.69577 14.0182C6.63553 14.0113 6.58566 14.0064 6.5471 14.0032C6.51223 14.0004 6.49758 14 6.49759 13.9999C6.49759 13.9999 6.49746 13.9999 6.49759 13.9999L3 13.9999C2.44772 13.9999 2 13.5522 2 12.9999V3.00532C2 2.45303 2.44772 2.00532 3 2.00532H17.7845ZM18.39 4.25204C18.1693 4.01756 18.0007 3.99338 17.9135 4.00126C17.8836 4.00396 17.8536 4.00532 17.8235 4.00532H9V12.4489C9.73419 12.7249 10.4043 13.1711 10.9582 13.7594C11.9328 14.7946 12.4706 16.1864 12.4706 17.6259V18.7506C12.4706 19.1007 12.6021 19.4253 12.8189 19.6556C13.0338 19.8839 13.3119 19.9999 13.5882 19.9999C13.8645 19.9999 14.1426 19.8839 14.3575 19.6556C14.5744 19.4253 14.7059 19.1007 14.7059 18.7506V13.1273C14.7059 12.575 15.1536 12.1273 15.7059 12.1273H18.8824C19.1586 12.1273 19.4368 12.0112 19.6517 11.783C19.8517 11.5705 19.9791 11.2778 19.9977 10.9588L18.9615 5.45584C18.8372 4.90275 18.6173 4.49342 18.39 4.25204ZM7 12.04V4.00532H4V11.9999H6.5C6.62549 11.9999 6.81073 12.0174 7 12.04Z" fill="black"/>
</svg>

<svg
  width="24"
  height="24"
  viewBox="0 0 24 24"
  xmlns="http://www.w3.org/2000/svg"
>
  <path
    fill-rule="evenodd"
    clip-rule="evenodd"
    d="M17.785 2.005c.808-.055 1.53.311 2.061.876.535.568.89 1.339 1.072 2.158l.006.03 1.059 5.624a1 1 0 0 1 .017.185c0 .843-.315 1.663-.892 2.276a3.057 3.057 0 0 1-2.226.973h-2.176v4.624c0 .842-.315 1.662-.892 2.276a3.056 3.056 0 0 1-2.226.973 3.057 3.057 0 0 1-2.225-.973 3.323 3.323 0 0 1-.892-2.276v-1.125c0-.947-.355-1.844-.969-2.496a3.16 3.16 0 0 0-1.693-.947 18.21 18.21 0 0 0-1.262-.18L6.497 14H3a1 1 0 0 1-1-1V3.005a1 1 0 0 1 1-1h14.785zm.605 2.247c-.22-.234-.39-.259-.477-.25a1 1 0 0 1-.09.003H9v8.444a5.21 5.21 0 0 1 1.958 1.31 5.644 5.644 0 0 1 1.513 3.867v1.125c0 .35.131.674.348.905.215.228.493.344.77.344.275 0 .554-.116.768-.344.217-.23.349-.555.349-.905v-5.624a1 1 0 0 1 1-1h3.176c.277 0 .555-.116.77-.344.2-.213.327-.505.346-.824L18.96 5.456c-.124-.553-.344-.963-.571-1.204zM7 12.04V4.005H4V12h2.5c.125 0 .31.017.5.04z"
  />
</svg>
